nuxtjs.org/static/img/sponsors/dark/netlify-logo.svg

<svg width="147" height="40" viewBox="0 0 147 40" fill="none" xmlns="http://www.w3.org/2000/svg">
<path fill-rule="evenodd" clip-rule="evenodd" d="M53.37 12.978L53.493 15.176C54.896 13.476 56.738 12.626 59.018 12.626C62.969 12.626 64.98 14.894 65.05 19.43V31.998H60.79V19.676C60.79 18.469 60.53 17.576 60.01 16.995C59.49 16.415 58.639 16.125 57.458 16.125C55.739 16.125 54.458 16.905 53.618 18.463V31.998H49.356V12.978H53.372H53.37ZM77.748 32.35C75.048 32.35 72.858 31.498 71.181 29.793C69.503 28.088 68.664 25.817 68.664 22.981V22.454C68.664 20.556 69.029 18.859 69.76 17.365C70.49 15.871 71.517 14.708 72.838 13.875C74.159 13.044 75.632 12.628 77.258 12.628C79.841 12.628 81.838 13.454 83.246 15.106C84.656 16.759 85.36 19.096 85.36 22.12V23.843H72.96C73.09 25.413 73.612 26.655 74.53 27.569C75.448 28.483 76.603 28.94 77.994 28.94C79.946 28.94 81.536 28.15 82.764 26.567L85.061 28.765C84.301 29.901 83.287 30.783 82.019 31.41C80.75 32.037 79.327 32.35 77.749 32.35H77.748ZM77.24 16.056C76.07 16.056 75.127 16.466 74.408 17.286C73.688 18.106 73.23 19.249 73.031 20.714H81.151V20.397C81.057 18.967 80.677 17.887 80.011 17.154C79.344 16.422 78.421 16.056 77.24 16.056V16.056ZM94.005 8.356V12.979H97.355V16.143H94.005V26.76C94.005 27.486 94.149 28.01 94.435 28.333C94.721 28.655 95.233 28.816 95.97 28.816C96.4718 28.8146 96.9717 28.7555 97.46 28.64V31.945C96.49 32.215 95.555 32.349 94.654 32.349C91.381 32.349 89.744 30.539 89.744 26.918V16.142H86.62V12.978H89.742V8.355H94.003L94.005 8.356ZM105.142 31.999H100.88V4.999H105.142V31.999ZM114.314 31.999H110.052V12.979H114.314V31.999ZM109.789 8.039C109.789 7.384 109.996 6.839 110.411 6.405C110.827 5.972 111.42 5.755 112.191 5.755C112.963 5.755 113.559 5.972 113.981 6.405C114.401 6.839 114.611 7.384 114.611 8.04C114.611 8.684 114.401 9.22 113.981 9.648C113.559 10.076 112.963 10.29 112.191 10.29C111.42 10.29 110.827 10.076 110.411 9.648C109.996 9.221 109.789 8.684 109.789 8.04V8.039ZM120.452 31.999V16.142H117.558V12.978H120.452V11.238C120.452 9.128 121.036 7.5 122.205 6.351C123.375 5.203 125.011 4.629 127.115 4.629C127.864 4.629 128.659 4.734 129.501 4.945L129.396 8.285C128.858 8.18519 128.312 8.1383 127.765 8.145C125.73 8.145 124.713 9.193 124.713 11.291V12.978H128.571V16.142H124.713V31.998H120.452V31.999ZM138.322 25.882L142.18 12.979H146.722L139.182 34.882C138.024 38.081 136.06 39.681 133.289 39.681C132.669 39.681 131.985 39.575 131.237 39.364V36.059L132.044 36.112C133.119 36.112 133.929 35.916 134.473 35.523C135.016 35.131 135.446 34.472 135.762 33.546L136.375 31.911L129.711 12.979H134.306L138.322 25.882Z" fill="white"/>
<path d="M27.887 14.135L27.873 14.129C27.865 14.126 27.857 14.123 27.85 14.116C27.8385 14.1037 27.83 14.0889 27.8252 14.0728C27.8203 14.0566 27.8192 14.0396 27.822 14.023L28.595 9.297L32.22 12.923L28.45 14.527C28.4395 14.5312 28.4283 14.5333 28.417 14.533H28.402C28.397 14.53 28.392 14.526 28.382 14.516C28.2417 14.3598 28.0739 14.2306 27.887 14.135V14.135ZM33.145 13.847L37.021 17.723C37.826 18.529 38.229 18.931 38.376 19.397C38.398 19.466 38.416 19.535 38.43 19.606L29.167 15.683C29.162 15.6809 29.157 15.6789 29.152 15.677C29.115 15.662 29.072 15.645 29.072 15.607C29.072 15.569 29.116 15.551 29.153 15.536L29.165 15.531L33.145 13.847ZM38.272 20.85C38.072 21.226 37.682 21.616 37.022 22.277L32.652 26.646L27 25.469L26.97 25.463C26.92 25.455 26.867 25.446 26.867 25.401C26.8455 25.1678 26.7763 24.9416 26.6636 24.7364C26.5509 24.5311 26.3972 24.3513 26.212 24.208C26.189 24.185 26.195 24.149 26.202 24.116C26.202 24.111 26.202 24.106 26.204 24.102L27.267 17.576L27.271 17.554C27.277 17.504 27.286 17.446 27.331 17.446C27.5588 17.4177 27.7787 17.3443 27.9778 17.2301C28.177 17.1159 28.3514 16.9633 28.491 16.781C28.5 16.771 28.506 16.76 28.518 16.754C28.55 16.739 28.588 16.754 28.621 16.768L38.271 20.85H38.272ZM31.647 27.651L24.461 34.837L25.691 27.277L25.693 27.267C25.694 27.257 25.696 27.247 25.699 27.238C25.709 27.214 25.735 27.204 25.76 27.194L25.772 27.189C26.0413 27.0741 26.2795 26.8969 26.467 26.672C26.491 26.644 26.52 26.617 26.557 26.612C26.5666 26.6104 26.5764 26.6104 26.586 26.612L31.646 27.652L31.647 27.651ZM22.94 36.358L22.13 37.168L13.175 24.226C13.1718 24.2213 13.1684 24.2166 13.165 24.212C13.151 24.193 13.136 24.174 13.139 24.152C13.139 24.136 13.15 24.122 13.161 24.11L13.171 24.097C13.198 24.057 13.221 24.017 13.246 23.974L13.266 23.939L13.269 23.936C13.283 23.912 13.296 23.889 13.32 23.876C13.341 23.866 13.37 23.87 13.393 23.875L23.314 25.921C23.3417 25.9253 23.3679 25.9367 23.39 25.954C23.403 25.967 23.406 25.981 23.409 25.997C23.4782 26.2588 23.607 26.5011 23.7853 26.705C23.9636 26.9088 24.1867 27.0686 24.437 27.172C24.465 27.186 24.453 27.217 24.44 27.25C24.4335 27.2645 24.4285 27.2795 24.425 27.295C24.3 28.055 23.228 34.593 22.94 36.358ZM21.248 38.049C20.651 38.64 20.299 38.953 19.901 39.079C19.5086 39.2031 19.0874 39.2031 18.695 39.079C18.229 38.931 17.826 38.529 17.021 37.723L8.028 28.73L10.377 25.087C10.388 25.069 10.399 25.053 10.417 25.04C10.442 25.022 10.478 25.03 10.508 25.04C11.0472 25.2027 11.626 25.1733 12.146 24.957C12.173 24.947 12.2 24.94 12.221 24.959C12.2315 24.9686 12.2409 24.9793 12.249 24.991L21.248 38.049ZM7.16 27.863L5.098 25.8L9.172 24.062C9.18241 24.0575 9.19364 24.0551 9.205 24.055C9.239 24.055 9.259 24.089 9.277 24.12C9.31794 24.183 9.36131 24.2444 9.407 24.304L9.42 24.32C9.432 24.337 9.424 24.354 9.412 24.37L7.162 27.863H7.16ZM4.184 24.887L1.574 22.277C1.13 21.833 0.807998 21.511 0.583998 21.234L8.52 22.88C8.52997 22.8818 8.53997 22.8835 8.55 22.885C8.599 22.893 8.653 22.902 8.653 22.948C8.653 22.998 8.594 23.021 8.544 23.04L8.521 23.05L4.184 24.887ZM0.129998 19.892C0.139042 19.7239 0.169281 19.5576 0.219998 19.397C0.367998 18.931 0.769998 18.529 1.576 17.723L4.916 14.383C6.45383 16.6149 7.99583 18.8439 9.542 21.07C9.569 21.106 9.599 21.146 9.568 21.176C9.422 21.337 9.276 21.513 9.173 21.704C9.16182 21.7286 9.14462 21.7499 9.123 21.766C9.11 21.774 9.096 21.771 9.081 21.768H9.079L0.128998 19.891L0.129998 19.892ZM5.81 13.489L10.3 8.998C10.723 9.183 12.26 9.832 13.633 10.412C14.673 10.852 15.621 11.252 15.919 11.382C15.949 11.394 15.976 11.406 15.989 11.436C15.997 11.454 15.993 11.477 15.989 11.496C15.9179 11.8202 15.9285 12.1569 16.0198 12.476C16.1111 12.7951 16.2802 13.0865 16.512 13.324C16.542 13.354 16.512 13.397 16.486 13.434L16.472 13.455L11.912 20.518C11.9 20.538 11.889 20.555 11.869 20.568C11.845 20.583 11.811 20.576 11.783 20.569C11.6056 20.5225 11.4233 20.4977 11.24 20.495C11.076 20.495 10.898 20.525 10.718 20.558H10.717C10.697 20.561 10.679 20.565 10.663 20.553C10.6453 20.5386 10.6301 20.5213 10.618 20.502L5.81 13.489V13.489ZM11.208 8.091L17.022 2.277C17.827 1.472 18.23 1.069 18.696 0.922001C19.0884 0.797911 19.5096 0.797911 19.902 0.922001C20.368 1.069 20.771 1.472 21.576 2.277L22.836 3.537L18.7 9.94C18.6898 9.95864 18.6758 9.97498 18.659 9.988C18.634 10.005 18.599 9.998 18.569 9.988C18.243 9.88907 17.8978 9.87105 17.5632 9.93552C17.2287 9.99999 16.9149 10.145 16.649 10.358C16.622 10.386 16.582 10.37 16.548 10.355C16.008 10.12 11.808 8.345 11.207 8.09L11.208 8.091ZM23.714 4.415L27.532 8.233L26.612 13.931V13.946C26.6112 13.959 26.6085 13.9718 26.604 13.984C26.594 14.004 26.574 14.008 26.554 14.014C26.3573 14.0736 26.172 14.1659 26.006 14.287C25.9989 14.2921 25.9922 14.2978 25.986 14.304C25.975 14.316 25.964 14.327 25.946 14.329C25.9313 14.3295 25.9167 14.3271 25.903 14.322L20.085 11.85L20.074 11.845C20.037 11.83 19.993 11.812 19.993 11.774C19.9588 11.4498 19.8529 11.1372 19.683 10.859C19.655 10.813 19.624 10.765 19.648 10.718L23.714 4.415ZM19.78 13.02L25.234 15.33C25.264 15.344 25.297 15.357 25.31 15.388C25.3152 15.4066 25.3152 15.4264 25.31 15.445C25.294 15.525 25.28 15.616 25.28 15.708V15.861C25.28 15.899 25.241 15.915 25.205 15.93L25.194 15.934C24.33 16.303 13.064 21.107 13.047 21.107C13.03 21.107 13.012 21.107 12.995 21.09C12.965 21.06 12.995 21.018 13.022 20.98C13.0268 20.9734 13.0314 20.9667 13.036 20.96L17.518 14.02L17.526 14.008C17.552 13.966 17.582 13.919 17.63 13.919L17.675 13.926C17.777 13.94 17.867 13.953 17.958 13.953C18.638 13.953 19.268 13.622 19.648 13.056C19.6571 13.0409 19.6685 13.0274 19.682 13.016C19.709 12.996 19.749 13.006 19.78 13.02ZM13.534 22.205L25.814 16.968C25.814 16.968 25.832 16.968 25.849 16.985C25.916 17.052 25.973 17.097 26.028 17.139L26.055 17.156C26.08 17.17 26.105 17.186 26.107 17.212C26.107 17.222 26.107 17.228 26.105 17.237L25.054 23.7L25.05 23.726C25.043 23.776 25.036 23.833 24.989 23.833C24.7085 23.8519 24.4369 23.939 24.1977 24.0866C23.9584 24.2341 23.7588 24.4378 23.616 24.68L23.611 24.688C23.597 24.711 23.584 24.733 23.561 24.745C23.54 24.755 23.513 24.751 23.491 24.746L13.698 22.726C13.688 22.724 13.546 22.207 13.535 22.206L13.534 22.205Z" fill="white"/>
</svg>

<svg xmlns="http://www.w3.org/2000/svg" width="147" height="40">
    <g fill="#fff" fill-rule="evenodd">
        <path d="m53.37 12.978.123 2.198c1.403-1.7 3.245-2.55 5.525-2.55 3.951 0 5.962 2.268 6.032 6.804v12.568h-4.26v-12.322c0-1.207-.26-2.1-.78-2.681-.52-.58-1.371-.87-2.552-.87-1.719 0-3 .78-3.84 2.338v13.535h-4.262v-19.02h4.016zm24.378 19.372c-2.7 0-4.89-.852-6.567-2.557-1.678-1.705-2.517-3.976-2.517-6.812v-.527c0-1.898.365-3.595 1.096-5.089.73-1.494 1.757-2.657 3.078-3.49 1.321-.831 2.794-1.247 4.42-1.247 2.583 0 4.58.826 5.988 2.478 1.41 1.653 2.114 3.99 2.114 7.014v1.723h-12.4c.13 1.57.652 2.812 1.57 3.726s2.073 1.371 3.464 1.371c1.952 0 3.542-.79 4.77-2.373l2.297 2.198c-.76 1.136-1.774 2.018-3.042 2.645-1.269.627-2.692.94-4.27.94zm-.508-16.294c-1.17 0-2.113.41-2.832 1.23-.72.82-1.178 1.963-1.377 3.428h8.12v-.317c-.094-1.43-.474-2.51-1.14-3.243-.667-.732-1.59-1.098-2.771-1.098zm16.765-7.7v4.623h3.35v3.164h-3.35v10.617c0 .726.144 1.25.43 1.573.286.322.798.483 1.535.483a6.55 6.55 0 0 0 1.49-.176v3.305c-.97.27-1.905.404-2.806.404-3.273 0-4.91-1.81-4.91-5.431v-10.776h-3.124v-3.164h3.122v-4.623h4.261zm11.137 23.643h-4.262v-27h4.262zm9.172 0h-4.262v-19.02h4.262zm-4.525-23.96c0-.655.207-1.2.622-1.634.416-.433 1.009-.65 1.78-.65.772 0 1.368.217 1.79.65.42.434.63.979.63 1.635 0 .644-.21 1.18-.63 1.608-.422.428-1.018.642-1.79.642-.771 0-1.364-.214-1.78-.642-.415-.427-.622-.964-.622-1.608zm10.663 23.96v-15.857h-2.894v-3.164h2.894v-1.74c0-2.11.584-3.738 1.753-4.887 1.17-1.148 2.806-1.722 4.91-1.722.749 0 1.544.105 2.386.316l-.105 3.34a8.375 8.375 0 0 0 -1.631-.14c-2.035 0-3.052 1.048-3.052 3.146v1.687h3.858v3.164h-3.858v15.856h-4.261zm17.87-6.117 3.858-12.903h4.542l-7.54 21.903c-1.158 3.199-3.122 4.799-5.893 4.799-.62 0-1.304-.106-2.052-.317v-3.305l.807.053c1.075 0 1.885-.196 2.429-.589.543-.392.973-1.051 1.289-1.977l.613-1.635-6.664-18.932h4.595z"/>
        <path fill-rule="nonzero" d="m27.887 14.135-.014-.006c-.008-.003-.016-.006-.023-.013a.11.11 0 0 1 -.028-.093l.773-4.726 3.625 3.626-3.77 1.604a.083.083 0 0 1 -.033.006h-.015c-.005-.003-.01-.007-.02-.017a1.716 1.716 0 0 0 -.495-.381zm5.258-.288 3.876 3.876c.805.806 1.208 1.208 1.355 1.674.022.069.04.138.054.209l-9.263-3.923a.728.728 0 0 0 -.015-.006c-.037-.015-.08-.032-.08-.07s.044-.056.081-.071l.012-.005zm5.127 7.003c-.2.376-.59.766-1.25 1.427l-4.37 4.369-5.652-1.177-.03-.006c-.05-.008-.103-.017-.103-.062a1.706 1.706 0 0 0 -.655-1.193c-.023-.023-.017-.059-.01-.092 0-.005 0-.01.002-.014l1.063-6.526.004-.022c.006-.05.015-.108.06-.108a1.73 1.73 0 0 0 1.16-.665c.009-.01.015-.021.027-.027.032-.015.07 0 .103.014l9.65 4.082zm-6.625 6.801-7.186 7.186 1.23-7.56.002-.01c.001-.01.003-.02.006-.029.01-.024.036-.034.061-.044l.012-.005a1.85 1.85 0 0 0 .695-.517c.024-.028.053-.055.09-.06a.09.09 0 0 1 .029 0l5.06 1.04zm-8.707 8.707-.81.81-8.955-12.942a.424.424 0 0 0 -.01-.014c-.014-.019-.029-.038-.026-.06 0-.016.011-.03.022-.042l.01-.013c.027-.04.05-.08.075-.123l.02-.035.003-.003c.014-.024.027-.047.051-.06.021-.01.05-.006.073-.001l9.921 2.046a.164.164 0 0 1 .076.033c.013.013.016.027.019.043a1.757 1.757 0 0 0 1.028 1.175c.028.014.016.045.003.078a.238.238 0 0 0 -.015.045c-.125.76-1.197 7.298-1.485 9.063zm-1.692 1.691c-.597.591-.949.904-1.347 1.03a2 2 0 0 1 -1.206 0c-.466-.148-.869-.55-1.674-1.356l-8.993-8.993 2.349-3.643c.011-.018.022-.034.04-.047.025-.018.061-.01.091 0a2.434 2.434 0 0 0 1.638-.083c.027-.01.054-.017.075.002a.19.19 0 0 1 .028.032zm-14.088-10.186-2.062-2.063 4.074-1.738a.084.084 0 0 1 .033-.007c.034 0 .054.034.072.065a2.91 2.91 0 0 0 .13.184l.013.016c.012.017.004.034-.008.05l-2.25 3.493zm-2.976-2.976-2.61-2.61c-.444-.444-.766-.766-.99-1.043l7.936 1.646a.84.84 0 0 0 .03.005c.049.008.103.017.103.063 0 .05-.059.073-.109.092l-.023.01zm-4.054-4.995a2 2 0 0 1 .09-.495c.148-.466.55-.868 1.356-1.674l3.34-3.34a2175.525 2175.525 0 0 0 4.626 6.687c.027.036.057.076.026.106-.146.161-.292.337-.395.528a.16.16 0 0 1 -.05.062c-.013.008-.027.005-.042.002h-.002l-8.95-1.877zm5.68-6.403 4.49-4.491c.423.185 1.96.834 3.333 1.414 1.04.44 1.988.84 2.286.97.03.012.057.024.07.054.008.018.004.041 0 .06a2.003 2.003 0 0 0 .523 1.828c.03.03 0 .073-.026.11l-.014.021-4.56 7.063c-.012.02-.023.037-.043.05-.024.015-.058.008-.086.001a2.274 2.274 0 0 0 -.543-.074c-.164 0-.342.03-.522.063h-.001c-.02.003-.038.007-.054-.005a.21.21 0 0 1 -.045-.051l-4.808-7.013zm5.398-5.398 5.814-5.814c.805-.805 1.208-1.208 1.674-1.355a2 2 0 0 1 1.206 0c.466.147.869.55 1.674 1.355l1.26 1.26-4.136 6.403a.155.155 0 0 1 -.041.048c-.025.017-.06.01-.09 0a2.097 2.097 0 0 0 -1.92.37c-.027.028-.067.012-.101-.003-.54-.235-4.74-2.01-5.341-2.265zm12.506-3.676 3.818 3.818-.92 5.698v.015a.135.135 0 0 1 -.008.038c-.01.02-.03.024-.05.03a1.83 1.83 0 0 0 -.548.273.154.154 0 0 0 -.02.017c-.011.012-.022.023-.04.025a.114.114 0 0 1 -.043-.007l-5.818-2.472-.011-.005c-.037-.015-.081-.033-.081-.071a2.198 2.198 0 0 0 -.31-.915c-.028-.046-.059-.094-.035-.141zm-3.934 8.605 5.454 2.31c.03.014.063.027.076.058a.106.106 0 0 1 0 .057c-.016.08-.03.171-.03.263v.153c0 .038-.039.054-.075.069l-.011.004c-.864.369-12.13 5.173-12.147 5.173s-.035 0-.052-.017c-.03-.03 0-.072.027-.11a.76.76 0 0 0 .014-.02l4.482-6.94.008-.012c.026-.042.056-.089.104-.089l.045.007c.102.014.192.027.283.027.68 0 1.31-.331 1.69-.897a.16.16 0 0 1 .034-.04c.027-.02.067-.01.098.004zm-6.246 9.185 12.28-5.237s.018 0 .035.017c.067.067.124.112.179.154l.027.017c.025.014.05.03.052.056 0 .01 0 .016-.002.025l-1.051 6.463-.004.026c-.007.05-.014.107-.061.107a1.729 1.729 0 0 0 -1.373.847l-.005.008c-.014.023-.027.045-.05.057-.021.01-.048.006-.07.001l-9.793-2.02c-.01-.002-.152-.519-.163-.52z"/>
    </g>
</svg>
